!!!OTL: Tuolaji yikai xizaizanxintao
!!!ARE: Asia, China, Shanxi Xixian
!! I, 291, 1)
!!!SCT: C1885
!!!YEM: Copyright 1995, estate of Helmut Schaffrath.
**kern
*ICvox
*Ivox
*M2/4
*k[f#c#g#d#]
*E:
{8g#
8b
8ee
16ee
16cc#
=1
8.g#
16ee
16b
16cc#
16b
16g#
=2
16f#
16g#
8b
16cc#
16b
16g#
16f#
=3
2e}
=4
{8.g#
16b
8cc#
16cc#
16b
=5
8.d#
16f#
16g#
16g#
16g#
16b
=6
8.d#
16c#
4B
=7
8c#
8c#
8d#
8c#
=8
2B}
==
!!!AGN: Xiaodiao
!! Han
!!!ONB: ESAC (Essen Associative Code) Database: SENGANSU
!!!AMT: simple duple
!!!AIN: vox
!!!EED: Helmut Schaffrath
!!!EEV: 1.0
*-
